static/assets/images/logos/monochrome/clark.svg

<svg height="88" width="112" xmlns="http://www.w3.org/2000/svg"><path d="M0 42c0-6.708 5.273-12 12.056-12 3.596 0 6.932 1.547 9.037 4.155.391.485.522.802.522 1.156 0 .67-.596 1.23-1.304 1.23-.466 0-.839-.168-1.156-.56-1.826-2.292-4.21-3.447-7.062-3.447-5.273 0-9.242 4.08-9.242 9.466s3.969 9.466 9.242 9.466c2.851 0 5.236-1.193 7.062-3.447.274-.36.703-.569 1.156-.56.708 0 1.304.56 1.304 1.23 0 .354-.15.671-.522 1.156C19.063 52.453 15.671 54 12.056 54 5.273 53.981 0 48.708 0 42zm26.665 10.51V31.806c0-.8.559-1.434 1.378-1.434.783 0 1.38.633 1.38 1.434v19.696h9.875c.745 0 1.267.522 1.267 1.23 0 .67-.522 1.23-1.267 1.23h-11.18c-.857 0-1.453-.634-1.453-1.454zm62.515.242c0 .67-.559 1.23-1.304 1.23-.429 0-.801-.243-1.193-.746l-7.006-9.391h-5.273v8.72c0 .783-.597 1.398-1.38 1.398-.8 0-1.378-.634-1.378-1.398V31.807c0-.782.596-1.397 1.397-1.397h6.746c4.435 0 7.416 2.702 7.416 6.708 0 3.093-1.752 5.422-4.603 6.335l6.094 8.274c.316.335.484.69.484 1.025zM74.422 41.404h5.31c2.926 0 4.678-1.621 4.678-4.249 0-2.608-1.789-4.285-4.677-4.285h-5.31zm22.752-9.95v21.093c0 .8-.596 1.434-1.379 1.434-.801 0-1.379-.633-1.379-1.434V31.453c0-.8.56-1.434 1.379-1.434.783-.019 1.379.615 1.379 1.434zM111.8 52.751c0 .67-.559 1.23-1.267 1.23-.354 0-.708-.168-1.1-.56L98.349 42.093c-.242-.28-.429-.596-.429-.95s.168-.671.466-.988l10.061-9.595c.429-.391.708-.559 1.062-.559.708 0 1.267.559 1.267 1.23 0 .391-.167.708-.596 1.1l-9.205 8.831 10.305 10.584c.372.317.521.597.521 1.007zm-45.503-.97L57.391 30.95c-.28-.633-.708-.95-1.304-.95s-1.025.317-1.304.95l-8.907 20.814c-.15.354-.205.634-.205.876a1.36 1.36 0 0 0 1.341 1.341c.597 0 1.063-.354 1.305-.913l1.695-4.043.056-.15 1.025-2.459 4.994-12.298 4.845 12.317 1.062 2.46 1.863 4.192c.28.559.708.913 1.342.913.708 0 1.341-.634 1.341-1.342 0-.242-.074-.54-.242-.875z" fill="#000000"/></svg>

<?xml version="1.0" encoding="UTF-8" standalone="no"?>
<!DOCTYPE svg PUBLIC "-//W3C//DTD SVG 1.1//EN" "http://www.w3.org/Graphics/SVG/1.1/DTD/svg11.dtd">
<svg viewBox="0 0 112 24" version="1.1" xmlns="http://www.w3.org/2000/svg" xmlns:xlink="http://www.w3.org/1999/xlink" xml:space="preserve" xmlns:serif="http://www.serif.com/" style="fill-rule:evenodd;clip-rule:evenodd;stroke-linejoin:round;stroke-miterlimit:2;">
    <g transform="matrix(1,0,0,1,0,-30)">
        <path d="M0,42C0,35.292 5.273,30 12.056,30C15.652,30 18.988,31.547 21.093,34.155C21.484,34.64 21.615,34.957 21.615,35.311C21.615,35.981 21.019,36.541 20.311,36.541C19.845,36.541 19.472,36.373 19.155,35.981C17.329,33.689 14.945,32.534 12.093,32.534C6.82,32.534 2.851,36.614 2.851,42C2.851,47.386 6.82,51.466 12.093,51.466C14.944,51.466 17.329,50.273 19.155,48.019C19.429,47.659 19.858,47.45 20.311,47.459C21.019,47.459 21.615,48.019 21.615,48.689C21.615,49.043 21.465,49.36 21.093,49.845C19.063,52.453 15.671,54 12.056,54C5.273,53.981 0,48.708 0,42ZM26.665,52.51L26.665,31.806C26.665,31.006 27.224,30.372 28.043,30.372C28.826,30.372 29.423,31.005 29.423,31.806L29.423,51.502L39.298,51.502C40.043,51.502 40.565,52.024 40.565,52.732C40.565,53.402 40.043,53.962 39.298,53.962L28.118,53.962C27.261,53.962 26.665,53.328 26.665,52.508L26.665,52.51ZM89.18,52.752C89.18,53.422 88.621,53.982 87.876,53.982C87.447,53.982 87.075,53.739 86.683,53.236L79.677,43.845L74.404,43.845L74.404,52.565C74.404,53.348 73.807,53.963 73.024,53.963C72.224,53.963 71.646,53.329 71.646,52.565L71.646,31.807C71.646,31.025 72.242,30.41 73.043,30.41L79.789,30.41C84.224,30.41 87.205,33.112 87.205,37.118C87.205,40.211 85.453,42.54 82.602,43.453L88.696,51.727C89.012,52.062 89.18,52.417 89.18,52.752ZM74.422,41.404L79.732,41.404C82.658,41.404 84.41,39.783 84.41,37.155C84.41,34.547 82.621,32.87 79.733,32.87L74.423,32.87L74.422,41.404ZM97.174,31.453L97.174,52.547C97.174,53.347 96.578,53.981 95.795,53.981C94.994,53.981 94.416,53.348 94.416,52.547L94.416,31.453C94.416,30.653 94.976,30.019 95.795,30.019C96.578,30 97.174,30.634 97.174,31.453ZM111.8,52.751C111.8,53.421 111.241,53.981 110.533,53.981C110.179,53.981 109.825,53.813 109.433,53.421L98.349,42.093C98.107,41.813 97.92,41.497 97.92,41.143C97.92,40.789 98.088,40.472 98.386,40.155L108.447,30.56C108.876,30.169 109.155,30.001 109.509,30.001C110.217,30.001 110.776,30.56 110.776,31.231C110.776,31.622 110.609,31.939 110.18,32.331L100.975,41.162L111.28,51.746C111.652,52.063 111.801,52.343 111.801,52.753L111.8,52.751ZM66.297,51.781L57.391,30.95C57.111,30.317 56.683,30 56.087,30C55.491,30 55.062,30.317 54.783,30.95L45.876,51.764C45.726,52.118 45.671,52.398 45.671,52.64C45.681,53.372 46.28,53.971 47.012,53.981C47.609,53.981 48.075,53.627 48.317,53.068L50.012,49.025L50.068,48.875L51.093,46.416L56.087,34.118L60.932,46.435L61.994,48.895L63.857,53.087C64.137,53.646 64.565,54 65.199,54C65.907,54 66.54,53.366 66.54,52.658C66.54,52.416 66.466,52.118 66.298,51.783L66.297,51.781Z" style="fill-rule:nonzero;"/>
    </g>
</svg>
